X: 15
%%musicspace 0pt
T: Knight's of Saint Patrick
I: Knight's of Saint Patrick	J-58	D	jig	Set 44
M: 6/8
R: jig
K: D
"D"dcd faf| dcd AFD| "G"GBG FAF| "A"EFG ABc|
"D"d3 faf| dcd AFD| "G"GBG "D"FAF |1 "A"EDE D2A :|2 "A"EDE D2f |]
"D"aga fdf| aba agf| "A"g3 gec| Ace gfe|
"D"aga fdf| aba afg| afd "Em"bge| "A"edc "D"d2f|
"D"aga fdf| aba agf| "A"g3 gec| Ace gfe|
"D"d3 "Em"ede| "F#m"fef "G"gfg| "D"afd "Em"bge| "D"dAF D2 "(A)"A |]
%%text Roaring Jelly J-58

